X:1
T:Title
T:Sarong Banggi
T:Potenciano V. Gregorio Sr.
C:Composer
L:1/8
M:3/4
K:Ab
V:1 treble nm="Piano" snm="Pno."
V:1
 z C A2 F2 | C6 | z C A2 F2 | D6 | z C G3 F | =E3 G C2 | z C=D=E FG | A3 G F2 | z C A2 F2 | C6 | %10
w: Sa- rong bang-|gi,|sa hig- da-|an,|na- ka- da-|ngog a- ko|nin hu- ni nin sa-|rong gam- gam.|Sa lu- ba|ko,|
 z C F2 E2 | D6 | z B, C2 D2 | CC F2 A2 | GF =E3 G | F6 | z CFG AB | cccc cc | cc B2 A2 | B6 | %20
w: ka- tu- ru-|gan.|Ba- ko kun-|di si- mong bo-|ses i- yo pa-|lan.|Da- gos a- ko ba-|ngon si sa- ku- yang ma-|ta i- mi- nuk-|lat.|
 z C=EF GA | B2 BB B2 | BB A3 G | A6 | z CFG AB | c2 cc c2 | z c f2 e2 | d6 | z2 d2 cB | A2 c2 BA | %30
w: Ka- id- tong ka- dik-|lu- man a- ko|na- nga- lag- ka-|lag.|Si sa- kong pag- he-|ling pa- si- ring|sa i- ta-|as,|si- mong la-|wog na- he- ling|
 GB A2 G2 | F6 ::[K:Eb] z GBc de | d4 c2 | Bc B2 A2 | G6 | z DEF Gc | B4 FG | A2 G2 F2 | G6 | %40
w: ko ma- li- wa-|nag.|Mag- pu- on na i-|ka ay|sa- kong ma- mo'|tan,|na- ka- i- sip a-|ko kung a-|no ang mar'-|hay.|
 z GBc de | d4 c2 | Bc d2 e2 | c6 | z cdf ec | B2 Gc B2 | FG A2 D2 | E6 :| %48
w: Ta pa- ti pu- so|ko si-|mo nang pi- nu-|kaw.|Ma- he- ling ka sa-|na ay sa- kong|i- ka- u- ug-|ma.|

